packages/foundations/assets/icons/functional/images/buildings/house_14_filled.svg

<svg width="14" height="14" viewBox="0 0 14 14" fill="none" xmlns="http://www.w3.org/2000/svg">
<g clip-path="url(#clip0_2202_1194)">
<path fill-rule="evenodd" clip-rule="evenodd" d="M4.92396 12.6H3.50396C3.31799 12.5944 3.14126 12.5176 3.01026 12.3855C2.87926 12.2534 2.80398 12.076 2.79996 11.89V6.94499L2.60196 7.16399C2.53842 7.2301 2.46194 7.28242 2.3773 7.31769C2.29265 7.35296 2.20165 7.37042 2.10996 7.36899C1.69996 7.36899 1.39996 7.05499 1.39996 6.64499C1.39996 6.49499 1.45496 6.34499 1.56396 6.23499L5.67496 2.10999C5.97496 1.80999 6.30296 1.39999 6.99996 1.39999C7.69696 1.39999 8.02396 1.80999 8.32496 2.10999L12.395 6.16699C12.4612 6.23318 12.5134 6.31198 12.5486 6.39872C12.5838 6.48546 12.6013 6.57839 12.6 6.67199C12.6 7.06799 12.272 7.36899 11.876 7.36899C11.712 7.36899 11.559 7.33099 11.453 7.21899L11.2 6.94499V11.89C11.2 12.272 10.838 12.6 10.497 12.6H9.10296C8.73496 12.6 8.39996 12.354 8.39996 11.985V8.39999H5.59996V11.903C5.59996 12.273 5.36096 12.6 4.92396 12.6Z" fill="#1A1C1F"/>
</g>
<defs>
<clipPath id="clip0_2202_1194">
<rect width="14" height="14" fill="white"/>
</clipPath>
</defs>
</svg>

<svg xmlns="http://www.w3.org/2000/svg" width="14" height="14" fill="none"><g clip-path="url(#a)"><path fill="#1A1C1F" fill-rule="evenodd" d="M4.924 12.6h-1.42a.726.726 0 0 1-.704-.71V6.945l-.198.219a.67.67 0 0 1-.492.205c-.41 0-.71-.314-.71-.724 0-.15.055-.3.164-.41L5.675 2.11c.3-.3.628-.71 1.325-.71s1.024.41 1.325.71l4.07 4.057a.7.7 0 0 1 .205.505c0 .396-.328.697-.724.697-.164 0-.317-.038-.423-.15l-.253-.274v4.945c0 .382-.362.71-.703.71H9.103c-.368 0-.703-.246-.703-.615V8.4H5.6v3.503c0 .37-.239.697-.676.697" clip-rule="evenodd"/></g><defs><clipPath id="a"><path fill="#fff" d="M0 0h14v14H0z"/></clipPath></defs></svg>
